Obsidian-SemiLight/actions/22s/text-speak.svg

<svg viewBox="0 0 22 22" xmlns="http://www.w3.org/2000/svg"><path d="m6 3v7h8v3l3-3v-7zm1 1h9v5h-9zm2 7-3 2.5h-1v3h1l3 2.5h.5.5v-8h-.5z" fill="#4d4d4d"/></svg>

<svg xmlns="http://www.w3.org/2000/svg" viewBox="0 0 22 22">
  <defs id="defs3051">
    <style type="text/css" id="current-color-scheme">
      .ColorScheme-Text {
        color:#4d4d4d;
      }
      </style>
  </defs>
 <path 
     style="fill:currentColor;fill-opacity:1;stroke:none" 
     d="M 6 3 L 6 10 L 14 10 L 14 13 L 17 10 L 17 3 L 6 3 z M 7 4 L 16 4 L 16 9 L 7 9 L 7 4 z M 9 11 L 6 13.5 L 5 13.5 L 5 16.5 L 6 16.5 L 9 19 L 9.5 19 L 10 19 L 10 11 L 9.5 11 L 9 11 z "
	 class="ColorScheme-Text"
     />
</svg>
